src/lib/packages/icons/src/assets/line/folder-search.svg

<svg width="24" height="24" viewBox="0 0 24 24" fill="none" xmlns="http://www.w3.org/2000/svg">
<path d="M18 6.25H13.311L10.531 3.47C10.39 3.329 10.2 3.25 10.001 3.25H6.00098C3.58298 3.25 2.25098 4.582 2.25098 7V17C2.25098 19.418 3.58298 20.75 6.00098 20.75H18.001C20.419 20.75 21.751 19.418 21.751 17V10C21.75 7.582 20.418 6.25 18 6.25ZM20.25 17C20.25 18.577 19.577 19.25 18 19.25H6C4.423 19.25 3.75 18.577 3.75 17V7C3.75 5.423 4.423 4.75 6 4.75H9.68896L12.469 7.53C12.61 7.671 12.8 7.75 12.999 7.75H17.999C19.576 7.75 20.249 8.423 20.249 10V17H20.25ZM13.999 14.938C14.377 14.361 14.6021 13.674 14.6021 12.935C14.6021 10.913 12.9571 9.26801 10.9351 9.26801C8.91406 9.26801 7.26904 10.913 7.26904 12.935C7.26904 14.957 8.91406 16.602 10.9351 16.602C11.6751 16.602 12.362 16.378 12.939 15.999L14.489 17.549C14.635 17.695 14.827 17.769 15.019 17.769C15.211 17.769 15.4031 17.696 15.5491 17.549C15.8421 17.256 15.8421 16.781 15.5491 16.488L13.999 14.938ZM8.76904 12.935C8.76904 11.74 9.74106 10.768 10.9351 10.768C12.1301 10.768 13.1021 11.74 13.1021 12.935C13.1021 14.13 12.1301 15.102 10.9351 15.102C9.74006 15.102 8.76904 14.13 8.76904 12.935Z" fill="currentColor"/>
</svg>

<svg xmlns="http://www.w3.org/2000/svg" width="24" height="24" fill="none"><path fill="currentColor" d="M18 6.25h-4.689l-2.78-2.78a.749.749 0 0 0-.53-.22h-4c-2.418 0-3.75 1.332-3.75 3.75v10c0 2.418 1.332 3.75 3.75 3.75h12c2.418 0 3.75-1.332 3.75-3.75v-7C21.75 7.582 20.418 6.25 18 6.25ZM20.25 17c0 1.577-.673 2.25-2.25 2.25H6c-1.577 0-2.25-.673-2.25-2.25V7c0-1.577.673-2.25 2.25-2.25h3.689l2.78 2.78c.141.141.331.22.53.22h5c1.577 0 2.25.673 2.25 2.25v7h.001Zm-6.251-2.062a3.645 3.645 0 0 0 .603-2.003 3.671 3.671 0 0 0-3.667-3.667 3.67 3.67 0 0 0-3.666 3.667 3.671 3.671 0 0 0 3.666 3.667c.74 0 1.427-.224 2.004-.603l1.55 1.55a.748.748 0 0 0 1.06 0 .75.75 0 0 0 0-1.061L14 14.938Zm-5.23-2.003a2.17 2.17 0 0 1 2.166-2.167 2.17 2.17 0 0 1 2.167 2.167 2.17 2.17 0 0 1-2.167 2.167 2.168 2.168 0 0 1-2.166-2.167Z"/></svg>
